icons/openstack-dark.svg

<svg width="256" height="256" viewBox="0 0 256 256" fill="none" xmlns="http://www.w3.org/2000/svg">
<rect width="256" height="256" rx="60" fill="#282828"/>
<path fill-rule="evenodd" clip-rule="evenodd" d="M200.682 40H54.6695C45.5013 40 38 47.5013 38 56.6695V95.8738H78.4391V89.453C78.4391 84.4675 82.483 80.4391 87.4529 80.4391H167.868C172.853 80.4391 176.882 84.483 176.882 89.453V95.8738H217.321V56.6695C217.321 47.5013 209.82 40 200.651 40H200.682Z" fill="#ED1844"/>
<path fill-rule="evenodd" clip-rule="evenodd" d="M177.53 166.102C177.53 171.087 173.486 175.116 168.516 175.116H88.1011C83.1157 175.116 79.0873 171.072 79.0873 166.102V159.681H38.6482V198.885C38.6482 208.054 46.1495 215.555 55.3177 215.555H201.331C210.499 215.555 218 208.054 218 198.885V159.681H177.561L177.53 166.102Z" fill="#ED1844"/>
<path fill-rule="evenodd" clip-rule="evenodd" d="M38.6172 107.604V148.043H78.7476V107.604H38.6172Z" fill="#ED1844"/>
<path fill-rule="evenodd" clip-rule="evenodd" d="M177.53 107.604V148.043H217.661V107.604H177.53Z" fill="#ED1844"/>
</svg>

<svg xmlns="http://www.w3.org/2000/svg" width="256" height="256" fill="none"><rect width="256" height="256" fill="#282828" rx="60"/><path fill="#ED1844" fill-rule="evenodd" d="M200.682 40H54.67C45.5 40 38 47.501 38 56.67v39.204h40.44v-6.421c0-4.986 4.043-9.014 9.013-9.014h80.415c4.985 0 9.014 4.044 9.014 9.014v6.42h40.439V56.67c0-9.168-7.501-16.669-16.67-16.669zM177.53 166.102c0 4.985-4.044 9.014-9.014 9.014H88.101c-4.985 0-9.014-4.044-9.014-9.014v-6.421H38.648v39.204c0 9.169 7.502 16.67 16.67 16.67H201.33c9.168 0 16.669-7.501 16.669-16.67v-39.204H177.56zM38.617 107.604v40.439h40.13v-40.439zm138.913 0v40.439h40.131v-40.439z" clip-rule="evenodd"/></svg>
